z_dist/img/icons/telegram.svg

<svg width="32" height="32" viewBox="0 0 32 32" fill="none" xmlns="http://www.w3.org/2000/svg">
<path d="M13.0667 23.3333C12.5483 23.3333 12.6364 23.1376 12.4576 22.644L10.9333 17.6274L22.6667 10.6666" fill="#C8DAEA"/>
<path d="M13.0667 23.3333C13.4667 23.3333 13.6434 23.1504 13.8667 22.9333L16 20.8589L13.3389 19.2543" fill="#A9C9DD"/>
<path d="M13.3386 19.2547L19.7866 24.0185C20.5224 24.4245 21.0535 24.2143 21.2368 23.3354L23.8614 10.967C24.1301 9.88963 23.4507 9.40099 22.7468 9.72056L7.33484 15.6634C6.28283 16.0853 6.28896 16.6722 7.14308 16.9338L11.0981 18.1682L20.2545 12.3915C20.6868 12.1294 21.0835 12.2703 20.7579 12.5593" fill="url(#paint0_linear_419_1260)"/>
<defs>
<linearGradient id="paint0_linear_419_1260" x1="13.997" y1="16.9828" x2="15.7066" y2="22.5128" gradientUnits="userSpaceOnUse">
<stop stop-color="#EFF7FC"/>
<stop offset="1" stop-color="white"/>
</linearGradient>
</defs>
</svg>

<svg width="32" height="32" fill="none" xmlns="http://www.w3.org/2000/svg"><path d="M13.067 23.333c-.519 0-.43-.195-.61-.689l-1.524-5.017 11.734-6.96" fill="#C8DAEA"/><path d="M13.067 23.333c.4 0 .576-.183.8-.4L16 20.86l-2.661-1.605" fill="#A9C9DD"/><path d="M13.339 19.255l6.448 4.764c.735.405 1.267.195 1.45-.684l2.624-12.368c.27-1.077-.41-1.566-1.114-1.246L7.335 15.663c-1.052.422-1.046 1.01-.192 1.27l3.955 1.235 9.156-5.776c.433-.263.83-.122.504.167" fill="url(#paint0_linear_419_1260)"/><defs><linearGradient id="paint0_linear_419_1260" x1="13.997" y1="16.983" x2="15.707" y2="22.513" gradientUnits="userSpaceOnUse"><stop stop-color="#EFF7FC"/><stop offset="1" stop-color="#fff"/></linearGradient></defs></svg>
